docs/services/img/plantuml/propagation/propagation_udp_ipv6.svg

<svg contentStyleType="text/css" height="535" preserveAspectRatio="none" viewBox="0 0 806 535" width="806" xmlns="http://www.w3.org/2000/svg" zoomAndPan="magnify"><g fill="#fff"><path d="m191.5 92.1094h10v29.3105h-10z" stroke="#181818"/><path d="m191.5 182.041h10v277.4395h-10z" stroke="#181818"/><path d="m665.5 264.9727h10v29.3105h-10z" stroke="#181818"/><path d="m747.5 430.1699h10v29.3105h-10z" stroke="#181818"/></g><path d="m132 53.4883h440v75.9316h-440z" fill="none" stroke="#000" stroke-width="1.5"/><path d="m10 143.4199h790.5v324.0605h-790.5z" fill="none" stroke="#000" stroke-width="1.5"/><path d="m411 226.3516h303.5v175.5078h-303.5z" fill="none" stroke="#000" stroke-width="1.5"/><g stroke="#181818" stroke-width=".5"><g stroke-dasharray="5 5"><path d="m67 36.4883v447.9922"/><path d="m196 36.4883v447.9922"/><path d="m491 36.4883v447.9922"/><path d="m670.5 36.4883v447.9922"/><path d="m752.5 36.4883v447.9922"/></g><rect fill="#e2e2f0" height="30.4883" rx="2.5" width="95" x="20" y="5"/></g><text font-family="sans-serif" font-size="14" lengthAdjust="spacing" textLength="81" x="27" y="25.5352">UDP6 Client</text><rect fill="#e2e2f0" height="30.4883" rx="2.5" stroke="#181818" stroke-width=".5" width="95" x="20" y="483.4805"/><text font-family="sans-serif" font-size="14" lengthAdjust="spacing" textLength="81" x="27" y="504.0156">UDP6 Client</text><rect fill="#e2e2f0" height="30.4883" rx="2.5" stroke="#181818" stroke-width=".5" width="109" x="142" y="5"/><text font-family="sans-serif" font-size="14" lengthAdjust="spacing" textLength="95" x="149" y="25.5352">UDP6 Listener</text><rect fill="#e2e2f0" height="30.4883" rx="2.5" stroke="#181818" stroke-width=".5" width="109" x="142" y="483.4805"/><text font-family="sans-serif" font-size="14" lengthAdjust="spacing" textLength="95" x="149" y="504.0156">UDP6 Listener</text><rect fill="#e2e2f0" height="30.4883" rx="2.5" stroke="#181818" stroke-width=".5" width="141" x="421" y="5"/><text font-family="sans-serif" font-size="14" lengthAdjust="spacing" textLength="127" x="428" y="25.5352">PropagationServer</text><rect fill="#e2e2f0" height="30.4883" rx="2.5" stroke="#181818" stroke-width=".5" width="141" x="421" y="483.4805"/><text font-family="sans-serif" font-size="14" lengthAdjust="spacing" textLength="127" x="428" y="504.0156">PropagationServer</text><rect fill="#e2e2f0" height="30.4883" rx="2.5" stroke="#181818" stroke-width=".5" width="68" x="636.5" y="5"/><text font-family="sans-serif" font-size="14" lengthAdjust="spacing" textLength="54" x="643.5" y="25.5352">TxStore</text><rect fill="#e2e2f0" height="30.4883" rx="2.5" stroke="#181818" stroke-width=".5" width="68" x="636.5" y="483.4805"/><text font-family="sans-serif" font-size="14" lengthAdjust="spacing" textLength="54" x="643.5" y="504.0156">TxStore</text><rect fill="#e2e2f0" height="30.4883" rx="2.5" stroke="#181818" stroke-width=".5" width="76" x="714.5" y="5"/><text font-family="sans-serif" font-size="14" lengthAdjust="spacing" textLength="62" x="721.5" y="25.5352">Validator</text><rect fill="#e2e2f0" height="30.4883" rx="2.5" stroke="#181818" stroke-width=".5" width="76" x="714.5" y="483.4805"/><text font-family="sans-serif" font-size="14" lengthAdjust="spacing" textLength="62" x="721.5" y="504.0156">Validator</text><path d="m191.5 92.1094h10v29.3105h-10z" fill="#fff" stroke="#181818"/><path d="m191.5 182.041h10v277.4395h-10z" fill="#fff" stroke="#181818"/><path d="m665.5 264.9727h10v29.3105h-10z" fill="#fff" stroke="#181818"/><path d="m747.5 430.1699h10v29.3105h-10z" fill="#fff" stroke="#181818"/><path d="m132 53.4883h74v7.3105l-10 10h-64z" fill="#eee" stroke="#000" stroke-width="1.5"/><path d="m132 53.4883h440v75.9316h-440z" fill="none" stroke="#000" stroke-width="1.5"/><text font-family="sans-serif" font-size="13" font-weight="bold" lengthAdjust="spacing" textLength="29" x="147" y="67.0566">loop</text><text font-family="sans-serif" font-size="11" font-weight="bold" lengthAdjust="spacing" textLength="229" x="221" y="66.123">[for each ipv6Address in ipv6Addresses]</text><path d="m212.5 88.1094-10 4 10 4-4-4z" fill="#181818" stroke="#181818"/><path d="m206.5 92.1094h284" stroke="#181818"/><text font-family="sans-serif" font-size="13" lengthAdjust="spacing" textLength="271" x="218.5" y="87.3672">Setup UDP Multicast Listener (ipv6Address)</text><path d="m479.5 117.4199 10 4-10 4 4-4z" fill="#181818" stroke="#181818"/><path d="m196.5 121.4199h289" stroke="#181818" stroke-dasharray="2 2"/><text font-family="sans-serif" font-size="13" lengthAdjust="spacing" textLength="91" x="203.5" y="116.6777">Listener Ready</text><path d="m10 143.4199h74v7.3106l-10 10h-64z" fill="#eee" stroke="#000" stroke-width="1.5"/><path d="m10 143.4199h790.5v324.0605h-790.5z" fill="none" stroke="#000" stroke-width="1.5"/><text font-family="sans-serif" font-size="13" font-weight="bold" lengthAdjust="spacing" textLength="29" x="25" y="156.9883">loop</text><text font-family="sans-serif" font-size="11" font-weight="bold" lengthAdjust="spacing" textLength="154" x="99" y="156.0547">[Listening for UDP Packets]</text><path d="m179.5 178.041 10 4-10 4 4-4z" fill="#181818" stroke="#181818"/><path d="m67.5 182.041h118" stroke="#181818"/><text font-family="sans-serif" font-size="13" lengthAdjust="spacing" textLength="105" x="74.5" y="177.2988">Send UDP Packet</text><path d="m479.5 207.3516 10 4-10 4 4-4z" fill="#181818" stroke="#181818"/><path d="m201.5 211.3516h284" stroke="#181818"/><text font-family="sans-serif" font-size="13" lengthAdjust="spacing" textLength="168" x="208.5" y="206.6094">Invoke ProcessTransaction</text><path d="m411 226.3516h62v7.3105l-10 10h-52z" fill="#eee" stroke="#000" stroke-width="1.5"/><path d="m411 226.3516h303.5v175.5078h-303.5z" fill="none" stroke="#000" stroke-width="1.5"/><text font-family="sans-serif" font-size="13" font-weight="bold" lengthAdjust="spacing" textLength="17" x="426" y="239.9199">alt</text><text font-family="sans-serif" font-size="11" font-weight="bold" lengthAdjust="spacing" textLength="129" x="488" y="238.9863">[if transaction is valid]</text><path d="m653.5 260.9727 10 4-10 4 4-4z" fill="#181818" stroke="#181818"/><path d="m491.5 264.9727h168" stroke="#181818"/><text font-family="sans-serif" font-size="13" lengthAdjust="spacing" textLength="155" x="498.5" y="260.2305">storeTransaction(ctx, tx)</text><path d="m502.5 290.2832-10 4 10 4-4-4z" fill="#181818" stroke="#181818"/><path d="m496.5 294.2832h173" stroke="#181818" stroke-dasharray="2 2"/><text font-family="sans-serif" font-size="13" lengthAdjust="spacing" textLength="132" x="508.5" y="289.541">Storage confirmation</text><path d="m491.5 323.5938h42" stroke="#181818" stroke-dasharray="2 2"/><path d="m533.5 323.5938v13" stroke="#181818" stroke-dasharray="2 2"/><path d="m492.5 336.5938h41" stroke="#181818" stroke-dasharray="2 2"/><path d="m502.5 332.5938-10 4 10 4-4-4z" fill="#181818" stroke="#181818"/><text font-family="sans-serif" font-size="13" lengthAdjust="spacing" textLength="145" x="498.5" y="318.8516">Send success response</text><path d="m411 345.5938h303.5" stroke="#000" stroke-dasharray="2 2"/><text font-family="sans-serif" font-size="11" font-weight="bold" lengthAdjust="spacing" textLength="140" x="416" y="356.2285">[if transaction is invalid]</text><path d="m491.5 380.8594h42" stroke="#181818" stroke-dasharray="2 2"/><path d="m533.5 380.8594v13" stroke="#181818" stroke-dasharray="2 2"/><path d="m492.5 393.8594h41" stroke="#181818" stroke-dasharray="2 2"/><path d="m502.5 389.8594-10 4 10 4-4-4z" fill="#181818" stroke="#181818"/><text font-family="sans-serif" font-size="13" lengthAdjust="spacing" textLength="125" x="498.5" y="376.1172">Send error response</text><path d="m735.5 426.1699 10 4-10 4 4-4z" fill="#181818" stroke="#181818"/><path d="m491.5 430.1699h250" stroke="#181818"/><text font-family="sans-serif" font-size="13" lengthAdjust="spacing" textLength="99" x="498.5" y="425.4277">Validate(ctx, tx)</text><path d="m502.5 455.4805-10 4 10 4-4-4z" fill="#181818" stroke="#181818"/><path d="m496.5 459.4805h255" stroke="#181818" stroke-dasharray="2 2"/><text font-family="sans-serif" font-size="13" lengthAdjust="spacing" textLength="124" x="508.5" y="454.7383">Validation response</text><text fill="#888" font-family="sans-serif" font-size="10" lengthAdjust="spacing" textLength="155" y="525.6367">Last Modified On: 18-Dec-2023</text></svg>

<?xml version="1.0" encoding="us-ascii" standalone="no"?><svg xmlns="http://www.w3.org/2000/svg" xmlns:xlink="http://www.w3.org/1999/xlink" contentStyleType="text/css" height="535px" preserveAspectRatio="none" style="width:806px;height:535px;background:#FFFFFF;" version="1.1" viewBox="0 0 806 535" width="806px" zoomAndPan="magnify"><defs/><g><rect fill="#FFFFFF" height="29.3105" style="stroke:#181818;stroke-width:1.0;" width="10" x="191.5" y="92.1094"/><rect fill="#FFFFFF" height="277.4395" style="stroke:#181818;stroke-width:1.0;" width="10" x="191.5" y="182.041"/><rect fill="#FFFFFF" height="29.3105" style="stroke:#181818;stroke-width:1.0;" width="10" x="665.5" y="264.9727"/><rect fill="#FFFFFF" height="29.3105" style="stroke:#181818;stroke-width:1.0;" width="10" x="747.5" y="430.1699"/><rect fill="none" height="75.9316" style="stroke:#000000;stroke-width:1.5;" width="440" x="132" y="53.4883"/><rect fill="none" height="324.0605" style="stroke:#000000;stroke-width:1.5;" width="790.5" x="10" y="143.4199"/><rect fill="none" height="175.5078" style="stroke:#000000;stroke-width:1.5;" width="303.5" x="411" y="226.3516"/><line style="stroke:#181818;stroke-width:0.5;stroke-dasharray:5.0,5.0;" x1="67" x2="67" y1="36.4883" y2="484.4805"/><line style="stroke:#181818;stroke-width:0.5;stroke-dasharray:5.0,5.0;" x1="196" x2="196" y1="36.4883" y2="484.4805"/><line style="stroke:#181818;stroke-width:0.5;stroke-dasharray:5.0,5.0;" x1="491" x2="491" y1="36.4883" y2="484.4805"/><line style="stroke:#181818;stroke-width:0.5;stroke-dasharray:5.0,5.0;" x1="670.5" x2="670.5" y1="36.4883" y2="484.4805"/><line style="stroke:#181818;stroke-width:0.5;stroke-dasharray:5.0,5.0;" x1="752.5" x2="752.5" y1="36.4883" y2="484.4805"/><rect fill="#E2E2F0" height="30.4883" rx="2.5" ry="2.5" style="stroke:#181818;stroke-width:0.5;" width="95" x="20" y="5"/><text fill="#000000" font-family="sans-serif" font-size="14" lengthAdjust="spacing" textLength="81" x="27" y="25.5352">UDP6 Client</text><rect fill="#E2E2F0" height="30.4883" rx="2.5" ry="2.5" style="stroke:#181818;stroke-width:0.5;" width="95" x="20" y="483.4805"/><text fill="#000000" font-family="sans-serif" font-size="14" lengthAdjust="spacing" textLength="81" x="27" y="504.0156">UDP6 Client</text><rect fill="#E2E2F0" height="30.4883" rx="2.5" ry="2.5" style="stroke:#181818;stroke-width:0.5;" width="109" x="142" y="5"/><text fill="#000000" font-family="sans-serif" font-size="14" lengthAdjust="spacing" textLength="95" x="149" y="25.5352">UDP6 Listener</text><rect fill="#E2E2F0" height="30.4883" rx="2.5" ry="2.5" style="stroke:#181818;stroke-width:0.5;" width="109" x="142" y="483.4805"/><text fill="#000000" font-family="sans-serif" font-size="14" lengthAdjust="spacing" textLength="95" x="149" y="504.0156">UDP6 Listener</text><rect fill="#E2E2F0" height="30.4883" rx="2.5" ry="2.5" style="stroke:#181818;stroke-width:0.5;" width="141" x="421" y="5"/><text fill="#000000" font-family="sans-serif" font-size="14" lengthAdjust="spacing" textLength="127" x="428" y="25.5352">PropagationServer</text><rect fill="#E2E2F0" height="30.4883" rx="2.5" ry="2.5" style="stroke:#181818;stroke-width:0.5;" width="141" x="421" y="483.4805"/><text fill="#000000" font-family="sans-serif" font-size="14" lengthAdjust="spacing" textLength="127" x="428" y="504.0156">PropagationServer</text><rect fill="#E2E2F0" height="30.4883" rx="2.5" ry="2.5" style="stroke:#181818;stroke-width:0.5;" width="68" x="636.5" y="5"/><text fill="#000000" font-family="sans-serif" font-size="14" lengthAdjust="spacing" textLength="54" x="643.5" y="25.5352">TxStore</text><rect fill="#E2E2F0" height="30.4883" rx="2.5" ry="2.5" style="stroke:#181818;stroke-width:0.5;" width="68" x="636.5" y="483.4805"/><text fill="#000000" font-family="sans-serif" font-size="14" lengthAdjust="spacing" textLength="54" x="643.5" y="504.0156">TxStore</text><rect fill="#E2E2F0" height="30.4883" rx="2.5" ry="2.5" style="stroke:#181818;stroke-width:0.5;" width="76" x="714.5" y="5"/><text fill="#000000" font-family="sans-serif" font-size="14" lengthAdjust="spacing" textLength="62" x="721.5" y="25.5352">Validator</text><rect fill="#E2E2F0" height="30.4883" rx="2.5" ry="2.5" style="stroke:#181818;stroke-width:0.5;" width="76" x="714.5" y="483.4805"/><text fill="#000000" font-family="sans-serif" font-size="14" lengthAdjust="spacing" textLength="62" x="721.5" y="504.0156">Validator</text><rect fill="#FFFFFF" height="29.3105" style="stroke:#181818;stroke-width:1.0;" width="10" x="191.5" y="92.1094"/><rect fill="#FFFFFF" height="277.4395" style="stroke:#181818;stroke-width:1.0;" width="10" x="191.5" y="182.041"/><rect fill="#FFFFFF" height="29.3105" style="stroke:#181818;stroke-width:1.0;" width="10" x="665.5" y="264.9727"/><rect fill="#FFFFFF" height="29.3105" style="stroke:#181818;stroke-width:1.0;" width="10" x="747.5" y="430.1699"/><path d="M132,53.4883 L206,53.4883 L206,60.7988 L196,70.7988 L132,70.7988 L132,53.4883 " fill="#EEEEEE" style="stroke:#000000;stroke-width:1.5;"/><rect fill="none" height="75.9316" style="stroke:#000000;stroke-width:1.5;" width="440" x="132" y="53.4883"/><text fill="#000000" font-family="sans-serif" font-size="13" font-weight="bold" lengthAdjust="spacing" textLength="29" x="147" y="67.0566">loop</text><text fill="#000000" font-family="sans-serif" font-size="11" font-weight="bold" lengthAdjust="spacing" textLength="229" x="221" y="66.123">[for each ipv6Address in ipv6Addresses]</text><polygon fill="#181818" points="212.5,88.1094,202.5,92.1094,212.5,96.1094,208.5,92.1094" style="stroke:#181818;stroke-width:1.0;"/><line style="stroke:#181818;stroke-width:1.0;" x1="206.5" x2="490.5" y1="92.1094" y2="92.1094"/><text fill="#000000" font-family="sans-serif" font-size="13" lengthAdjust="spacing" textLength="271" x="218.5" y="87.3672">Setup UDP Multicast Listener (ipv6Address)</text><polygon fill="#181818" points="479.5,117.4199,489.5,121.4199,479.5,125.4199,483.5,121.4199" style="stroke:#181818;stroke-width:1.0;"/><line style="stroke:#181818;stroke-width:1.0;stroke-dasharray:2.0,2.0;" x1="196.5" x2="485.5" y1="121.4199" y2="121.4199"/><text fill="#000000" font-family="sans-serif" font-size="13" lengthAdjust="spacing" textLength="91" x="203.5" y="116.6777">Listener Ready</text><path d="M10,143.4199 L84,143.4199 L84,150.7305 L74,160.7305 L10,160.7305 L10,143.4199 " fill="#EEEEEE" style="stroke:#000000;stroke-width:1.5;"/><rect fill="none" height="324.0605" style="stroke:#000000;stroke-width:1.5;" width="790.5" x="10" y="143.4199"/><text fill="#000000" font-family="sans-serif" font-size="13" font-weight="bold" lengthAdjust="spacing" textLength="29" x="25" y="156.9883">loop</text><text fill="#000000" font-family="sans-serif" font-size="11" font-weight="bold" lengthAdjust="spacing" textLength="154" x="99" y="156.0547">[Listening for UDP Packets]</text><polygon fill="#181818" points="179.5,178.041,189.5,182.041,179.5,186.041,183.5,182.041" style="stroke:#181818;stroke-width:1.0;"/><line style="stroke:#181818;stroke-width:1.0;" x1="67.5" x2="185.5" y1="182.041" y2="182.041"/><text fill="#000000" font-family="sans-serif" font-size="13" lengthAdjust="spacing" textLength="105" x="74.5" y="177.2988">Send UDP Packet</text><polygon fill="#181818" points="479.5,207.3516,489.5,211.3516,479.5,215.3516,483.5,211.3516" style="stroke:#181818;stroke-width:1.0;"/><line style="stroke:#181818;stroke-width:1.0;" x1="201.5" x2="485.5" y1="211.3516" y2="211.3516"/><text fill="#000000" font-family="sans-serif" font-size="13" lengthAdjust="spacing" textLength="168" x="208.5" y="206.6094">Invoke ProcessTransaction</text><path d="M411,226.3516 L473,226.3516 L473,233.6621 L463,243.6621 L411,243.6621 L411,226.3516 " fill="#EEEEEE" style="stroke:#000000;stroke-width:1.5;"/><rect fill="none" height="175.5078" style="stroke:#000000;stroke-width:1.5;" width="303.5" x="411" y="226.3516"/><text fill="#000000" font-family="sans-serif" font-size="13" font-weight="bold" lengthAdjust="spacing" textLength="17" x="426" y="239.9199">alt</text><text fill="#000000" font-family="sans-serif" font-size="11" font-weight="bold" lengthAdjust="spacing" textLength="129" x="488" y="238.9863">[if transaction is valid]</text><polygon fill="#181818" points="653.5,260.9727,663.5,264.9727,653.5,268.9727,657.5,264.9727" style="stroke:#181818;stroke-width:1.0;"/><line style="stroke:#181818;stroke-width:1.0;" x1="491.5" x2="659.5" y1="264.9727" y2="264.9727"/><text fill="#000000" font-family="sans-serif" font-size="13" lengthAdjust="spacing" textLength="155" x="498.5" y="260.2305">storeTransaction(ctx, tx)</text><polygon fill="#181818" points="502.5,290.2832,492.5,294.2832,502.5,298.2832,498.5,294.2832" style="stroke:#181818;stroke-width:1.0;"/><line style="stroke:#181818;stroke-width:1.0;stroke-dasharray:2.0,2.0;" x1="496.5" x2="669.5" y1="294.2832" y2="294.2832"/><text fill="#000000" font-family="sans-serif" font-size="13" lengthAdjust="spacing" textLength="132" x="508.5" y="289.541">Storage confirmation</text><line style="stroke:#181818;stroke-width:1.0;stroke-dasharray:2.0,2.0;" x1="491.5" x2="533.5" y1="323.5938" y2="323.5938"/><line style="stroke:#181818;stroke-width:1.0;stroke-dasharray:2.0,2.0;" x1="533.5" x2="533.5" y1="323.5938" y2="336.5938"/><line style="stroke:#181818;stroke-width:1.0;stroke-dasharray:2.0,2.0;" x1="492.5" x2="533.5" y1="336.5938" y2="336.5938"/><polygon fill="#181818" points="502.5,332.5938,492.5,336.5938,502.5,340.5938,498.5,336.5938" style="stroke:#181818;stroke-width:1.0;"/><text fill="#000000" font-family="sans-serif" font-size="13" lengthAdjust="spacing" textLength="145" x="498.5" y="318.8516">Send success response</text><line style="stroke:#000000;stroke-width:1.0;stroke-dasharray:2.0,2.0;" x1="411" x2="714.5" y1="345.5938" y2="345.5938"/><text fill="#000000" font-family="sans-serif" font-size="11" font-weight="bold" lengthAdjust="spacing" textLength="140" x="416" y="356.2285">[if transaction is invalid]</text><line style="stroke:#181818;stroke-width:1.0;stroke-dasharray:2.0,2.0;" x1="491.5" x2="533.5" y1="380.8594" y2="380.8594"/><line style="stroke:#181818;stroke-width:1.0;stroke-dasharray:2.0,2.0;" x1="533.5" x2="533.5" y1="380.8594" y2="393.8594"/><line style="stroke:#181818;stroke-width:1.0;stroke-dasharray:2.0,2.0;" x1="492.5" x2="533.5" y1="393.8594" y2="393.8594"/><polygon fill="#181818" points="502.5,389.8594,492.5,393.8594,502.5,397.8594,498.5,393.8594" style="stroke:#181818;stroke-width:1.0;"/><text fill="#000000" font-family="sans-serif" font-size="13" lengthAdjust="spacing" textLength="125" x="498.5" y="376.1172">Send error response</text><polygon fill="#181818" points="735.5,426.1699,745.5,430.1699,735.5,434.1699,739.5,430.1699" style="stroke:#181818;stroke-width:1.0;"/><line style="stroke:#181818;stroke-width:1.0;" x1="491.5" x2="741.5" y1="430.1699" y2="430.1699"/><text fill="#000000" font-family="sans-serif" font-size="13" lengthAdjust="spacing" textLength="99" x="498.5" y="425.4277">Validate(ctx, tx)</text><polygon fill="#181818" points="502.5,455.4805,492.5,459.4805,502.5,463.4805,498.5,459.4805" style="stroke:#181818;stroke-width:1.0;"/><line style="stroke:#181818;stroke-width:1.0;stroke-dasharray:2.0,2.0;" x1="496.5" x2="751.5" y1="459.4805" y2="459.4805"/><text fill="#000000" font-family="sans-serif" font-size="13" lengthAdjust="spacing" textLength="124" x="508.5" y="454.7383">Validation response</text><text fill="#888888" font-family="sans-serif" font-size="10" lengthAdjust="spacing" textLength="157" x="0" y="525.6367">Last Modified On: 28-May-2024</text><!--SRC=[bLDTIyCm57tlhxZuj8436JAa3uBeYx3XSDFtaDpEi9g4vAvi_zwaxRBKjWxxqjoFd7lEwQrXbYINXYc2cu-NzGAUIucARe2vzfYPNizIEaA5jkxocNESTNlNLXksOoIrsg2jslvUDijAhGqKsW8o_WNIL8id8Imw1rAb8ReC_DD3WDbZIYE73TB1X1Ii3gKdn1n5qZ194ASr8ECaAqROqH8AIGmpFwGtER_0lYCJf_gMm450LAALsgIasjMY0yqrutkaHbvZ-u0c9PBUVn0VvFsgAht7KE7UXwrboWKqhR86kIIG1T0b3z91nKefwlheTzWUDwGjvk32Ay6TS3hU0XsdyNvatzw9XJOUipmKsGw1QrL8-rtNujt4_D-m0tn71WIhtO47Py2lYT7ADJ1OEXpmHQghplmn2QtrQz2T4tPbVDa_mpJcnUNd8tRjZHx4pZeTep4-RKEGrU6Jk7f1lBxiM91VSKsUzJByWoijP25Hm9lAOVumMx7JR7utlyz-0000]--></g></svg>
